Assets/Textures/02_Film Emulation LUTs_Cross Process.cube
TITLE "Generated by Resolve"
LUT_3D_SIZE 33
0 0 0
0.0200046 0 0
0.0402991 0 0
0.0605478 0 0
0.0810712 0 0
0.102205 0 0
0.124285 0 0
0.147707 0 0
0.172717 0 0
0.19942 0 0
0.227863 0 0
0.258015 0 0
0.289464 0 0
0.321752 0 0
0.354421 0 0
0.387045 0 0
0.419211 0 0
0.451621 0 0
0.484367 0 0
0.517189 0 0
0.549813 0 0
0.581979 0 0
0.613428 0 0
0.643915 0 0
0.673136 0 0
0.701045 0 0
0.727687 0 0
0.753109 0 0
0.777356 0 0
0.800534 0 0
0.82295 0 0
0.84477 0 0
0.866209 0 0
0 0.0202029 0
0.0202335 0.0202335 0
0.0404517 0.020264 1.5259e-05
0.0606088 0.0202792 4.57771e-05
0.0810712 0.0202029 0
0.102159 0.0199435 0
0.124208 0.0194247 0
0.147601 0.0185245 0
0.17261 0.0172122 0
0.199313 0.0154421 0
0.227787 0.0131991 0
0.257969 0.0105135 0
0.289464 0.00750744 0
0.321798 0.00430304 0
0.354559 0.0010071 0
0.387259 0 0
0.419532 0 0
0.452049 0 0
0.484932 0 0
0.517891 0 0
0.550668 0 0
0.583001 0 0
0.614649 0 0
0.645319 0 0
0.674739 0 0
0.702876 0 0
0.729763 0 0
0.755444 0 0
0.779965 0 0
0.803449 0 0
0.826154 0 0
0.848295 0 0
0.870054 0 0
4.57771e-05 0.0404669 4.57771e-05
0.0202792 0.0404517 3.0518e-05
0.0404364 0.0404364 1.5259e-05
0.0605783 0.0404212 0
0.0810254 0.0403296 0
0.102113 0.0400702 0
0.124163 0.0395514 0
0.147585 0.0386969 0
0.172625 0.0374151 0
0.19939 0.0356909 0
0.227924 0.0335088 0
0.258183 0.0309148 0
0.289769 0.0280003 0
0.32221 0.0248875 0
0.355093 0.0217288 0
0.387915 0.018616 0
0.42034 0.0156863 0
0.453025 0.0127565 0
0.486076 0.00979629 0
0.519219 0.00688182 0
0.552193 0.00410468 0
0.584756 0.00151064 0
0.616617 0 0
0.647532 0 0
0.677226 0 0
0.705653 0 0
0.73283 0 0
0.758816 0 0
0.783658 0 0
0.807462 0 0
0.830488 0 0
0.852949 0 0
0.875013 0 0
3.0518e-05 0.0606088 3.0518e-05
0.0202487 0.0605631 0
0.0404059 0.0605631 0
0.0605631 0.0605631 0
0.0810407 0.060502 0
0.102174 0.0602731 0
0.124285 0.0598306 0
0.147768 0.0590219 0
0.1729 0.0578317 0
0.199756 0.056199 0
0.228397 0.054139 0
0.258793 0.051667 0
0.290501 0.0488746 0
0.32311 0.0459297 0
0.356146 0.0429236 0
0.389151 0.0399939 0
0.421775 0.0372625 0
0.454658 0.0345312 0
0.487922 0.0317845 0
0.521294 0.0291142 0
0.554528 0.0265812 0
0.587366 0.0242771 0
0.619516 0.0222629 0
0.650736 0.0206149 0
0.680751 0.0194247 0
0.709484 0.0186923 0
0.73698 0.0184176 0
0.763287 0.0185855 0
0.788434 0.0191806 0
0.812558 0.0201877 0
0.83592 0.0215152 0
0.858701 0.0231174 0
0.881117 0.0249638 0
0 0.0808576 0
0.0199893 0.0808576 0
0.0402075 0.0809033 0
0.0604257 0.0809644 0
0.0809796 0.0809796 0
0.10219 0.0808423 0
0.124407 0.0804913 0
0.148013 0.0798047 0
0.173266 0.0787366 0
0.200259 0.0772564 0
0.229068 0.075349 0
0.259632 0.0730449 0
0.291524 0.0704356 0
0.324315 0.067689 0
0.357565 0.0648966 0
0.390814 0.0621958 0
0.423667 0.0596933 0
0.456809 0.0572213 0
0.490349 0.0547646 0
0.524025 0.0523842 0
0.557565 0.0501564 0
0.590707 0.0481575 0
0.623178 0.0464637 0
0.654719 0.0451362 0
0.685039 0.0442664 0
0.714107 0.0438544 0
0.741924 0.0439002 0
0.768566 0.0444038 0
0.794049 0.0453193 0
0.818494 0.0466621 0
0.842191 0.0483253 0
0.865324 0.0502785 0
0.888075 0.0524605 0
0 0.101518 0
0.019379 0.101595 0
0.0396887 0.101732 0
0.0600137 0.1019 0
0.0806744 0.102037 0
0.102037 0.102037 0
0.124392 0.101823 0
0.14815 0.101305 0
0.173587 0.100404 0
0.200198 0.0992752 0
0.226368 0.0983749 0
0.259174 0.0957046 0
0.292378 0.0930343 0
0.325719 0.0904402 0
0.359243 0.0879072 0
0.392767 0.0854963 0
0.425925 0.083299 0
0.459373 0.0811475 0
0.493233 0.078996 0
0.52723 0.076936 0
0.56109 0.0750286 0
0.594553 0.0733501 0
0.627344 0.0719768 0
0.659205 0.0709697 0
0.68986 0.0704356 0
0.719249 0.0703593 0
0.747402 0.0707408 0
0.77438 0.0715648 0
0.800198 0.0728313 0
0.82501 0.0745098 0
0.849042 0.076524 0
0.872511 0.0788281 0
0.895613 0.0813458 0
0 0.122835 0
0.0182498 0.123049 0
0.0386969 0.123308 0
0.0591745 0.123644 0
0.0800183 0.123934 0
0.101549 0.124117 0
0.124102 0.124102 0
0.147662 0.123919 0
0.170397 0.124071 0
0.191943 0.124681 0
0.219043 0.123827 0
0.254261 0.120821 0
0.289784 0.117861 0
0.325261 0.115068 0
0.360372 0.11249 0
0.394812 0.110216 0
0.428367 0.108324 0
0.462135 0.106477 0
0.496315 0.104646 0
0.530632 0.102907 0
0.564813 0.101335 0
0.598611 0.0999771 0
0.631739 0.0989395 0
0.663935 0.0982834 0
0.694926 0.0980697 0
0.724666 0.0983291 0
0.753155 0.0990616 0
0.780484 0.100237 0
0.806653 0.101854 0
0.831785 0.103868 0
0.856153 0.106203 0
0.879927 0.108797 0
0.903288 0.111604 0
0 0.145129 0
0.016434 0.14551 0
0.0370642 0.145968 0
0.0577401 0.146487 0
0.0787976 0.14699 0
0.100267 0.147478 0
0.12079 0.148379 0
0.1402 0.149722 0
0.158633 0.151476 0
0.176287 0.153582 0
0.208408 0.151675 0
0.245548 0.148486 0
0.283177 0.145327 0
0.320775 0.142321 0
0.357931 0.139574 0
0.394278 0.137179 0
0.429541 0.13521 0
0.464469 0.133471 0
0.499275 0.131899 0
0.533928 0.13048 0
0.56846 0.129244 0
0.602579 0.128237 0
0.636042 0.127535 0
0.668589 0.127214 0
0.699947 0.127352 0
0.730007 0.127962 0
0.758846 0.12903 0
0.78648 0.13051 0
0.81294 0.132418 0
0.838346 0.134707 0
0.862974 0.137301 0
0.886976 0.140139 0
0.910567 0.14316 0
0 0.168627 0
0.0138247 0.169223 0
0.0346838 0.169909 0
0.055436 0.170733 0
0.0750896 0.17203 0
0.0933394 0.173861 0
0.110277 0.176196 0
0.126284 0.178927 0
0.141863 0.181903 0
0.159884 0.184283 0
0.196017 0.181582 0
0.234195 0.1785 0
0.273365 0.175296 0
0.312749 0.172168 0
0.351812 0.169284 0
0.390066 0.166781 0
0.427161 0.164721 0
0.463828 0.162905 0
0.500267 0.161303 0
0.536278 0.15996 0
0.571664 0.158923 0
0.606241 0.158236 0
0.640055 0.15787 0
0.672923 0.157885 0
0.704585 0.158328 0
0.734936 0.159228 0
0.764035 0.16054 0
0.791913 0.16228 0
0.818601 0.164416 0
0.844236 0.166918 0
0.869032 0.169696 0
0.893217 0.172717 0
0.916976 0.175891 0.000244144
0 0.19353 0
0.0104372 0.19443 0
0.0305028 0.195773 0
0.0489357 0.197742 0
0.0657206 0.20029 0
0.0810559 0.203387 0
0.0954147 0.206882 0
0.109529 0.210559 0
0.1243 0.21416 0
0.148287 0.215213 0
0.183444 0.213184 0
0.221607 0.210483 0
0.261509 0.207462 0
0.302144 0.204395 0
0.342733 0.201495 0
0.382666 0.198917 0
0.4215 0.196811 0
0.459907 0.194949 0
0.498024 0.193317 0
0.535622 0.191943 0
0.572503 0.19089 0
0.608454 0.190204 0
0.643244 0.189929 0
0.676661 0.190112 0
0.708568 0.190799 0
0.739147 0.191913 0
0.768444 0.193439 0
0.796521 0.195361 0
0.823377 0.197665 0
0.849149 0.200305 0
0.874083 0.20322 0
0.898375 0.206348 0.00222782
0.922225 0.209613 0.00549325
0 0.220295 0
0.00425727 0.22211 0
0.0221866 0.224552 0
0.0382239 0.227649 0
0.0527047 0.231296 0
0.0662242 0.235325 0
0.0796063 0.239506 0
0.0939651 0.243503 0
0.110567 0.246967 0
0.138476 0.247257 0
0.171817 0.246174 0
0.209033 0.244144 0
0.248814 0.241566 0
0.289967 0.238758 0
0.331548 0.235996 0
0.372778 0.233478 0
0.413077 0.231357 0
0.45301 0.22945 0
0.492668 0.227741 0
0.531777 0.226291 0
0.570108 0.225147 0
0.607416 0.224369 0
0.643488 0.224018 0
0.678111 0.224109 0
0.71104 0.224735 0
0.742245 0.225879 0
0.771817 0.227512 0
0.800015 0.229557 0
0.826978 0.231968 0
0.852827 0.234699 0
0.877836 0.23769 0.00285344
0.902174 0.240848 0.00602731
0.926055 0.24416 0.00932326
0 0.249561 0
0 0.252384 0
0.0110628 0.255833 0
0.0253605 0.259861 0
0.0387121 0.26424 0
0.0520943 0.268696 0
0.0666972 0.272892 0
0.0840162 0.276417 0
0.104997 0.279011 0
0.130755 0.280369 0
0.161822 0.280369 0
0.197436 0.279225 0
0.236316 0.277302 0
0.277241 0.274968 0
0.319142 0.272465 0
0.361089 0.270085 0
0.402396 0.267994 0
0.443519 0.266041 0
0.484474 0.264256 0
0.52491 0.262684 0
0.564553 0.261402 0
0.603159 0.260471 0
0.640467 0.259953 0
0.676249 0.259907 0
0.710277 0.260365 0
0.742519 0.261341 0
0.773037 0.262806 0
0.801907 0.264744 0
0.829206 0.267109 0
0.855116 0.269871 0.00216678
0.880125 0.272847 0.00515755
0.904463 0.276005 0.00830091
0.928298 0.279271 0.0115816
0 0.28101 0
0 0.284733 0
0 0.28896 0
0.013077 0.293492 0
0.0270695 0.298054 0
0.0426032 0.302251 0
0.0606546 0.305821 0
0.080293 0.309087 0
0.10164 0.312016 0
0.125338 0.314427 0
0.154025 0.315511 0
0.187594 0.315328 0
0.224964 0.314183 0
0.264958 0.312413 0
0.306493 0.310307 0
0.348547 0.308141 0
0.390341 0.306142 0
0.432227 0.304204 0
0.474113 0.302342 0
0.515618 0.300649 0
0.556374 0.299199 0
0.596109 0.298085 0
0.634546 0.297353 0
0.671427 0.297078 0
0.706508 0.297307 0
0.739727 0.298054 0
0.771176 0.299275 0
0.8009 0.300969 0
0.829007 0.30309 0.000762951
0.855604 0.305592 0.00334173
0.880995 0.3084 0.00619516
0.905394 0.311437 0.00924697
0.929137 0.314611 0.0124208
0 0.314137 0
0 0.318486 0
0 0.323033 0
0.00453193 0.32752 0
0.0211337 0.33167 0
0.0385901 0.335698 0
0.0571145 0.339544 0
0.0770581 0.34313 0
0.0987106 0.346349 0
0.122118 0.349187 0
0.148547 0.351263 0
0.179889 0.352026 0
0.215351 0.35169 0
0.253895 0.350561 0
0.294469 0.348928 0
0.336049 0.347097 0
0.377768 0.345266 0
0.419944 0.343389 0
0.462364 0.341466 0
0.504585 0.339666 0
0.546197 0.338048 0
0.586847 0.336721 0
0.62623 0.335744 0
0.664073 0.335195 0
0.700084 0.335149 0
0.734218 0.335592 0
0.766537 0.336522 0
0.797086 0.337896 0
0.82594 0.339696 0.00143435
0.853239 0.341863 0.0037995
0.879286 0.344335 0.00640879
0.904311 0.347066 0.00921645
0.928573 0.350027 0.012253
0 0.348302 0
0 0.352804 0
0 0.357153 0
0.00062562 0.361547 0
0.0176547 0.365957 0
0.0354009 0.37026 0
0.0541848 0.37438 0
0.0743877 0.37821 0
0.0962539 0.381643 0
0.119875 0.384695 0
0.145327 0.387304 0
0.174472 0.388922 0
0.207843 0.38938 0
0.244587 0.388937 0
0.283742 0.387839 0
0.324346 0.386389 0
0.365484 0.384802 0
0.407431 0.383032 0
0.449958 0.381125 0
0.4925 0.379232 0
0.53463 0.377462 0
0.575936 0.375906 0
0.616053 0.37467 0
0.654658 0.373831 0
0.691478 0.373449 0
0.72639 0.373556 0
0.759472 0.374121 0
0.790768 0.375113 0
0.820386 0.376593 0.00163272
0.848493 0.378515 0.00389105
0.87538 0.380819 0.00643931
0.901259 0.383429 0.00926223
0.926345 0.386297 0.0122683
0 0.382712 0
0 0.387198 0
0 0.391791 0
0 0.396445 0
0.0151369 0.401083 0
0.0330968 0.405615 0
0.0520943 0.409934 0
0.0724651 0.413931 0
0.0944991 0.417548 0
0.118257 0.420737 0
0.143801 0.423484 0
0.171359 0.425711 0
0.202625 0.426902 0
0.237369 0.427115 0
0.274815 0.426581 0
0.314015 0.425544 0
0.354131 0.424262 0
0.395422 0.422644 0
0.437583 0.420798 0
0.480064 0.418845 0
0.522347 0.416922 0
0.563989 0.415167 0
0.604562 0.413657 0
0.643717 0.412497 0
0.681147 0.41178 0
0.716793 0.411597 0
0.750698 0.411933 0
0.782895 0.412772 0.000366217
0.813428 0.414115 0.00227359
0.842435 0.4159 0.00453193
0.870176 0.418051 0.00708019
0.896895 0.420508 0.00985733
0.922789 0.423209 0.0128328
0 0.417533 0
0 0.422248 0
0 0.427039 0
0 0.431891 0
0.0136873 0.436713 0
0.0318303 0.441398 0
0.0509346 0.445853 0
0.0714427 0.449973 0
0.0935683 0.453681 0
0.117418 0.456962 0
0.143023 0.45977 0
0.170336 0.462135 0
0.19968 0.46392 0
0.232395 0.464729 0
0.267933 0.464729 0
0.305455 0.464134 0
0.344198 0.463172 0
0.384421 0.461753 0
0.425834 0.459983 0
0.467857 0.458015 0
0.509926 0.455985 0
0.551583 0.454063 0
0.592447 0.452415 0
0.632105 0.451148 0
0.670207 0.450355 0
0.7066 0.450065 0
0.741299 0.450278 0.000183108
0.774304 0.45098 0.00175479
0.805661 0.452155 0.00367742
0.835492 0.453758 0.00593576
0.864042 0.455741 0.00846876
0.891554 0.458015 0.0112154
0.918196 0.460517 0.0141146
0 0.453117 0
0 0.458 0
0 0.462959 0
0 0.467933 0
0.0125277 0.472862 0
0.0307469 0.477638 0
0.0499428 0.48217 0
0.0704967 0.486351 0
0.092668 0.490105 0
0.116533 0.4934 0
0.142138 0.496208 0
0.169436 0.498558 0
0.198001 0.500526 0
0.228733 0.501854 0
0.262287 0.502342 0
0.297963 0.502144 0
0.335073 0.501503 0
0.373907 0.500313 0
0.414298 0.498711 0
0.455634 0.49691 0
0.497383 0.495033 0
0.538994 0.493233 0
0.580011 0.491646 0
0.620005 0.490379 0
0.658549 0.489525 0
0.695491 0.489143 0.000213626
0.730816 0.489219 0.00151064
0.764492 0.489769 0.00314336
0.796567 0.490776 0.00509651
0.8271 0.492195 0.00733959
0.856382 0.493965 0.00984207
0.884611 0.49601 0.0125277
0.911971 0.498299 0.0153506
0 0.489311 0
0 0.494316 0
0 0.499336 0
0 0.504402 0
0.0113222 0.509377 0
0.029572 0.514183 0
0.0487678 0.51873 0
0.0693065 0.522911 0
0.0914626 0.526635 0
0.115282 0.529885 0
0.140841 0.532631 0
0.168063 0.53489 0
0.196521 0.536782 0
0.22591 0.538354 0
0.257527 0.539254 0
0.291356 0.539528 0
0.326848 0.539361 0
0.36434 0.538659 0
0.403647 0.537484 0
0.44416 0.536004 0
0.485328 0.534386 0
0.526604 0.532753 0
0.567483 0.531258 0
0.607523 0.530007 0
0.646281 0.529122 7.62951e-05
0.683558 0.528664 0.00117494
0.719295 0.528618 0.00257877
0.753491 0.529015 0.00425727
0.786114 0.529824 0.00622568
0.817243 0.531044 0.00846876
0.84715 0.532586 0.0109102
0.876005 0.534401 0.0135348
0.90399 0.536431 0.0162661
0 0.525811 0
0 0.530846 0
0 0.535912 0
0 0.540963 0
0.0101015 0.545937 0
0.0283207 0.550713 0
0.0474861 0.555215 0
0.0679637 0.559319 0
0.0900282 0.562951 0
0.113741 0.566094 0
0.139162 0.568734 0
0.166278 0.570886 0
0.194736 0.572747 0
0.224033 0.574411 0
0.254185 0.57586 0
0.286397 0.57673 0
0.320287 0.577127 0
0.356329 0.576944 0
0.394369 0.576196 0
0.433814 0.575082 0
0.474128 0.573739 0
0.514794 0.572305 0
0.555276 0.570932 0
0.595102 0.569741 0
0.633814 0.568841 0.000717174
0.671183 0.568322 0.00195315
0.707149 0.56817 0.00343328
0.741665 0.568399 0.00515755
0.77467 0.569039 0.00714122
0.806256 0.570031 0.00936904
0.836652 0.571344 0.0117647
0.866026 0.572885 0.0142977
0.89456 0.574639 0.0169223
0 0.562295 0
0 0.567315 0
0 0.572335 0
0 0.57734 0
0.00891127 0.582223 0
0.027039 0.586908 0
0.0460975 0.591302 0
0.0664378 0.595285 0
0.0884413 0.598856 0
0.112154 0.601999 0
0.137636 0.6047 0
0.164874 0.606958 0
0.193408 0.608911 0
0.222797 0.610651 0
0.252567 0.612299 0
0.283207 0.613718 0
0.315511 0.614633 0
0.350027 0.614923 0
0.386648 0.614618 0
0.424842 0.61387 0
0.464103 0.612818 0
0.503914 0.611612 0
0.54374 0.610391 0
0.583108 0.609262 0.000137331
0.621515 0.608392 0.00128176
0.658763 0.607813 0.00262455
0.694743 0.607569 0.00418097
0.729366 0.60766 0.00595102
0.7626 0.608103 0.00793469
0.794476 0.608896 0.010132
0.825208 0.609949 0.0124819
0.854994 0.611231 0.0149233
0.883955 0.61268 0.0174258
0 0.598459 0
0 0.603403 0
0 0.608316 0
0 0.613199 0
0.00781262 0.61799 0
0.0258946 0.622629 0
0.0449683 0.627039 0
0.0654154 0.631113 0
0.0875105 0.634775 0
0.111299 0.63801 0
0.136873 0.640772 0
0.164187 0.643107 0
0.192767 0.645106 0
0.222202 0.646891 0
0.252003 0.648569 0
0.281788 0.650263 0
0.312535 0.651667 0
0.34551 0.652399 0
0.380636 0.652506 0
0.417456 0.652125 0
0.455497 0.651362 0
0.49424 0.650401 0
0.533196 0.649332 0
0.571862 0.64831 0.000579843
0.609766 0.647471 0.0018616
0.646662 0.64686 0.00329595
0.682429 0.646525 0.00491341
0.71696 0.646494 0.00669871
0.75021 0.646769 0.00868238
0.782208 0.647334 0.0108492
0.813153 0.648127 0.0131075
0.843183 0.649134 0.0154574
0.872465 0.650278 0.0178378
0 0.633997 0
0 0.638849 0
0 0.643748 0
0 0.648692 0
0.0075227 0.653574 0
0.0256962 0.658305 0
0.0448615 0.662791 0
0.0653697 0.666941 0
0.0875257 0.670665 0
0.111376 0.673945 0
0.13698 0.676768 0
0.164309 0.679118 0
0.19292 0.681132 0
0.222339 0.682918 0
0.252155 0.684596 0
0.28188 0.68629 0
0.311376 0.688029 0
0.342794 0.689174 0
0.376425 0.689647 0
0.411795 0.689601 0
0.448478 0.689143 0
0.48603 0.688396 0
0.523919 0.687495 0
0.5617 0.686595 0.0011902
0.598871 0.685802 0.00254826
0.635203 0.685176 0.0040589
0.670527 0.684779 0.00570687
0.704784 0.684611 0.00750744
0.737865 0.684718 0.00947585
0.769802 0.685069 0.0115816
0.800793 0.685618 0.0137789
0.83093 0.68632 0.0160067
0.860365 0.687144 0.0182345
0 0.669154 0
0 0.674098 0
0 0.679088 0
0 0.684108 0
0.00843824 0.689052 0
0.0266728 0.693843 0
0.0458686 0.69839 0
0.0664225 0.702571 0
0.0885939 0.70631 0
0.112459 0.709606 0
0.138079 0.712428 0
0.165377 0.714778 0
0.193973 0.716762 0
0.223362 0.718532 0
0.253132 0.720165 0
0.282811 0.721798 0
0.311986 0.723537 0
0.34197 0.725017 0
0.37406 0.725841 0
0.40795 0.726101 0
0.443214 0.725902 0
0.479423 0.725383 0
0.516121 0.724651 0.000793469
0.552834 0.723857 0.00209049
0.589105 0.72311 0.00349432
0.624659 0.722484 0.00503548
0.659388 0.722026 0.00669871
0.693156 0.721752 0.00848402
0.725872 0.721691 0.0104219
0.75758 0.721828 0.0124514
0.788434 0.722118 0.0145418
0.818524 0.72253 0.0166323
0.84799 0.723033 0.0187076
0 0.704128 0
0 0.709133 0
0 0.714183 0
0 0.719234 0
0.0106813 0.724224 0
0.0289311 0.72903 0
0.0481422 0.733577 0
0.0686961 0.737758 0
0.0908522 0.741497 0
0.114702 0.744762 0
0.140276 0.747539 0
0.167544 0.749844 0
0.196063 0.751781 0
0.225391 0.753475 0
0.255085 0.755032 0
0.284657 0.756573 0
0.313756 0.758221 0
0.343008 0.759762 0
0.373617 0.760861 0
0.406012 0.761379 0
0.439796 0.761425 0
0.474601 0.761105 0.000854505
0.509987 0.760525 0.002121
0.54551 0.759838 0.00343328
0.580697 0.759152 0.00483711
0.61532 0.758526 0.00636301
0.649241 0.758007 0.00801099
0.682353 0.757626 0.00975052
0.714549 0.757412 0.0116121
0.745846 0.757336 0.01355
0.776394 0.757366 0.0155032
0.806271 0.757488 0.0174563
0.835615 0.757656 0.0193637
0 0.738766 0
0 0.743816 0
0 0.748867 0
0 0.753933 0
0.0141909 0.758907 0
0.0324254 0.763699 0
0.051606 0.768215 0
0.0721141 0.772366 0
0.0942245 0.776043 0
0.118013 0.779263 0
0.143511 0.781964 0
0.170687 0.784192 0
0.19913 0.786023 0
0.228351 0.78761 0
0.257923 0.789059 0
0.287373 0.790478 0
0.316335 0.791974 0
0.345434 0.793378 0
0.374929 0.794598 0
0.405844 0.795331 0.000274662
0.438148 0.795575 0.00151064
0.471489 0.795422 0.00270085
0.505486 0.79498 0.00390631
0.539696 0.794385 0.00515755
0.573693 0.793744 0.0065156
0.607233 0.793118 0.00798047
0.640192 0.792538 0.00955215
0.672465 0.79205 0.0112154
0.70399 0.791669 0.0129854
0.734722 0.791394 0.0148165
0.764813 0.791196 0.0166476
0.794369 0.791043 0.0184634
0.823484 0.790936 0.0202182
0 0.772976 0
0 0.778012 0
0 0.783047 0
0.00123598 0.788083 0
0.0187991 0.793011 0
0.0369879 0.797757 0
0.0561074 0.802213 0
0.0765545 0.806271 0
0.0985733 0.809873 0
0.12224 0.812985 0
0.147646 0.815579 0
0.174701 0.817685 0
0.203006 0.819394 0
0.23209 0.820844 0
0.261509 0.822126 0
0.290791 0.823377 0
0.319585 0.824704 0
0.348486 0.825925 0.000595102
0.377661 0.826978 0.00173953
0.407187 0.827863 0.00282292
0.438025 0.828244 0.00387579
0.469886 0.828229 0.00492866
0.502434 0.827893 0.0059968
0.535256 0.827375 0.00712596
0.567956 0.826749 0.0083772
0.60029 0.826108 0.00975052
0.632166 0.825498 0.0112306
0.663539 0.824918 0.0128176
0.69424 0.824399 0.0144808
0.7243 0.823972 0.0162051
0.753857 0.82359 0.0179446
0.782971 0.823224 0.0196384
0.811734 0.822858 0.0212711
0 0.806607 0
0 0.811612 0
0 0.816602 0
0.0069276 0.821561 0
0.0243687 0.826429 0
0.0424506 0.831067 0
0.0614786 0.835431 0
0.0818036 0.839384 0
0.1037 0.842863 0
