Assets/Textures/02_Film Emulation LUTs_Cross Process.cube
TITLE "Generated by Resolve"
LUT_3D_SIZE 5
0 0 0
0.172717 0 0
0.419211 0 0
0.673136 0 0
0.866209 0 0
0 0.168627 0
0.141863 0.181903 0
0.427161 0.164721 0
0.704585 0.158328 0
0.916976 0.175891 0.000244144
0 0.417533 0
0.0935683 0.453681 0
0.344198 0.463172 0
0.670207 0.450355 0
0.918196 0.460517 0.0141146
0 0.704128 0
0.0908522 0.741497 0
0.313756 0.758221 0
0.580697 0.759152 0.00483711
0.835615 0.757656 0.0193637
0 0.963561 0
0.133989 0.992187 0.0180362
0.34342 0.99585 0.022034
0.556207 0.992554 0.0199588
0.843107 0.961059 0.0229038
0 0 0.174578
0.171649 0 0.171649
0.416632 0 0.150256
0.673396 0 0.127153
0.868254 0 0.127169
0 0.169589 0.168856
0.175647 0.175647 0.175647
0.437552 0.168124 0.168124
0.711513 0.165255 0.165255
0.924956 0.183871 0.183871
0 0.426825 0.102373
0.100649 0.458824 0.19646
0.348913 0.468681 0.212711
0.713893 0.447974 0.179431
0.93724 0.465599 0.19617
0 0.709987 0.130922
0.0968185 0.746319 0.19826
0.317082 0.7626 0.21912
0.58378 0.763043 0.21944
0.869978 0.75259 0.207401
0.00202945 0.966339 0.191531
0.134539 0.993179 0.237217
0.341222 0.99527 0.242313
0.557717 0.989075 0.237186
0.921904 0.937591 0.195972
0 0 0.436347
0.163836 0 0.433265
0.375265 0 0.446677
0.630259 0 0.420447
0.853819 0 0.399619
0 0.178241 0.409354
0.00291447 0.221653 0.452644
0.332372 0.190951 0.506172
0.703685 0.167803 0.441184
0.926314 0.185229 0.454673
0 0.461006 0.26302
0.0453346 0.486763 0.371176
0.445075 0.445075 0.445075
0.723873 0.447059 0.447059
0.938552 0.466911 0.466911
0 0.729534 0.285344
0.0928664 0.7561 0.398245
0.318563 0.762722 0.487633
0.579919 0.759594 0.519875
0.916442 0.7364 0.462058
0.000274662 0.971603 0.390646
0.136919 0.990311 0.481392
0.338247 0.987396 0.52987
0.609781 0.963958 0.514214
0.92697 0.92697 0.455314
0 0 0.704829
0.155596 0 0.701839
0.280354 0 0.795621
0.537194 0 0.784222
0.785626 0 0.730205
0 0.213199 0.645457
0 0.240711 0.734188
0.209705 0.221546 0.828489
0.571237 0.196857 0.826398
0.87425 0.19765 0.773526
0 0.496132 0.515999
0 0.520165 0.633829
0.188266 0.520638 0.736782
0.548074 0.492088 0.807294
0.927092 0.470268 0.752667
0 0.767056 0.470054
0.00645457 0.792203 0.577432
0.241657 0.794949 0.663233
0.721889 0.721889 0.721889
0.924407 0.72958 0.72958
0 0.997406 0.528008
0.0961776 1 0.621454
0.313603 0.997711 0.693812
0.682963 0.937514 0.737362
0.918959 0.918959 0.724132
0 0 0.8972
0.128679 0 0.905699
0.163882 0.00976577 1
0.447166 0 1
0.702007 0 1
0 0.261662 0.822461
0 0.266026 0.940261
0.139345 0.248722 1
0.449439 0.233555 1
0.752544 0.230976 1
0 0.532753 0.713558
0 0.554055 0.837049
0.113298 0.550774 0.945541
0.401404 0.539986 1
0.737301 0.521675 1
0 0.808347 0.643
0 0.832624 0.754635
0.141146 0.83267 0.847517
0.382971 0.824826 0.938903
0.680644 0.7953 1
0 1 0.649638
7.62951e-05 1 0.734325
0.250706 1 0.820768
0.727275 0.923033 0.922667
0.916716 0.916716 0.916716
