Assets/Textures/02_Film Emulation LUTs_Cross Process.cube
TITLE "Generated by Resolve"
LUT_3D_SIZE 9
0 0 0
0.0810712 0 0
0.172717 0 0
0.289464 0 0
0.419211 0 0
0.549813 0 0
0.673136 0 0
0.777356 0 0
0.866209 0 0
0 0.0808576 0
0.0809796 0.0809796 0
0.173266 0.0787366 0
0.291524 0.0704356 0
0.423667 0.0596933 0
0.557565 0.0501564 0
0.685039 0.0442664 0
0.794049 0.0453193 0
0.888075 0.0524605 0
0 0.168627 0
0.0750896 0.17203 0
0.141863 0.181903 0
0.273365 0.175296 0
0.427161 0.164721 0
0.571664 0.158923 0
0.704585 0.158328 0
0.818601 0.164416 0
0.916976 0.175891 0.000244144
0 0.28101 0
0.0270695 0.298054 0
0.10164 0.312016 0
0.224964 0.314183 0
0.390341 0.306142 0
0.556374 0.299199 0
0.706508 0.297307 0
0.829007 0.30309 0.000762951
0.929137 0.314611 0.0124208
0 0.417533 0
0.0136873 0.436713 0
0.0935683 0.453681 0
0.19968 0.46392 0
0.344198 0.463172 0
0.509926 0.455985 0
0.670207 0.450355 0
0.805661 0.452155 0.00367742
0.918196 0.460517 0.0141146
0 0.562295 0
0.00891127 0.582223 0
0.0884413 0.598856 0
0.193408 0.608911 0
0.315511 0.614633 0
0.464103 0.612818 0
0.621515 0.608392 0.00128176
0.7626 0.608103 0.00793469
0.883955 0.61268 0.0174258
0 0.704128 0
0.0106813 0.724224 0
0.0908522 0.741497 0
0.196063 0.751781 0
0.313756 0.758221 0
0.439796 0.761425 0
0.580697 0.759152 0.00483711
0.714549 0.757412 0.0116121
0.835615 0.757656 0.0193637
0 0.839582 0
0.0307927 0.859007 0
0.109468 0.874891 0
0.212543 0.883055 0.00296025
0.327398 0.886656 0.00688182
0.441489 0.888853 0.00943008
0.560113 0.887892 0.0125124
0.677653 0.885344 0.017792
0.789899 0.882643 0.0238041
0 0.963561 0
0.0591897 0.979934 0.00585946
0.133989 0.992187 0.0180362
0.232807 0.996384 0.0223392
0.34342 0.99585 0.022034
0.453468 0.993957 0.0204929
0.556207 0.992554 0.0199588
0.656825 0.989944 0.0230716
0.843107 0.961059 0.0229038
0 0 0.0809186
0.0810864 0 0.0810864
0.172671 0 0.0781415
0.289433 0 0.0683452
0.419287 0 0.0553292
0.550088 0 0.0426795
0.673701 0 0.0329137
0.778271 0 0.0295567
0.867628 0 0.0320134
0 0.0808576 0.0808576
0.081117 0.081117 0.081117
0.173632 0.0791028 0.0791028
0.29221 0.0711223 0.0711223
0.424765 0.0607919 0.0607919
0.559167 0.0517586 0.0517586
0.68716 0.0463874 0.0463874
0.796704 0.0479896 0.0479896
0.891279 0.0556802 0.0556802
0 0.169451 0.0749065
0.0713817 0.174517 0.0806744
0.12987 0.18616 0.0979477
0.293523 0.172412 0.0783398
0.435477 0.166033 0.0715038
0.575189 0.16231 0.0677806
0.708461 0.162219 0.0676738
0.822843 0.168643 0.0741131
0.921416 0.180331 0.0858015
0 0.283955 0.0512703
0.0273442 0.300053 0.0780652
0.103197 0.314092 0.0943923
0.22739 0.317021 0.097261
0.409766 0.305592 0.0850385
0.576547 0.299153 0.0781872
0.719142 0.299596 0.0785229
0.834852 0.30721 0.0861372
0.933471 0.318944 0.0978561
0 0.420081 0.0390631
0.0167544 0.439506 0.068101
0.0960555 0.456703 0.0867933
0.20145 0.46717 0.0975967
0.347066 0.466438 0.0983902
0.525414 0.45623 0.0902876
0.691096 0.44979 0.085069
0.824781 0.452476 0.0882887
0.932082 0.46244 0.0984512
0 0.565087 0.0364538
0.0117952 0.585016 0.0632029
0.0907454 0.601694 0.0810254
0.195865 0.611887 0.0915389
0.315053 0.61857 0.0986496
0.467079 0.61619 0.0992905
0.634455 0.6094 0.0962234
0.781735 0.60763 0.0971847
0.904036 0.611978 0.103151
0 0.706889 0.0393225
0.0136263 0.727199 0.0648814
0.0933242 0.744488 0.0831159
0.198428 0.754681 0.0936446
0.315938 0.760937 0.100221
0.438193 0.765011 0.105257
0.582788 0.761639 0.105974
0.724407 0.757641 0.106706
0.850965 0.756191 0.109102
0 0.842237 0.0605936
0.0331731 0.861631 0.084184
0.111299 0.877256 0.100633
0.214023 0.885069 0.108782
0.328466 0.888243 0.112276
0.442054 0.890028 0.114397
0.556771 0.889815 0.115984
0.677546 0.886152 0.117144
0.795422 0.881727 0.11812
0 0.965393 0.090898
0.0598459 0.981537 0.110185
0.133867 0.993408 0.122621
0.232364 0.997147 0.126635
0.342641 0.99617 0.125994
0.452216 0.993927 0.124071
0.552789 0.992676 0.123171
0.692164 0.978866 0.11902
0.889158 0.947753 0.105837
0 0 0.174578
0.0801099 0 0.17464
0.171649 0 0.171649
0.288457 0 0.161913
0.416632 0 0.150256
0.549203 0 0.136767
0.673396 0 0.127153
0.778393 0 0.124208
0.868254 0 0.127169
0 0.0799268 0.174456
0.080354 0.080354 0.174884
0.172229 0.0787976 0.173739
0.287816 0.0719158 0.168429
0.425055 0.0610819 0.155627
0.559976 0.0525673 0.147097
0.688502 0.047715 0.142245
0.798581 0.0498665 0.144396
0.893721 0.0581064 0.152636
0 0.169589 0.168856
0.0540322 0.181933 0.159503
0.175647 0.175647 0.175647
0.299367 0.172824 0.172824
0.437552 0.168124 0.168124
0.577813 0.164935 0.164935
0.711513 0.165255 0.165255
0.826185 0.172 0.172
0.924956 0.183871 0.183871
0 0.29453 0.0942397
0.0270848 0.306661 0.13959
0.106554 0.316777 0.191089
0.22916 0.31899 0.211002
0.437797 0.302312 0.176989
0.587167 0.300832 0.174289
0.72285 0.303151 0.176608
0.838346 0.310719 0.184161
0.936797 0.322271 0.195712
0 0.426825 0.102373
0.0231327 0.443244 0.155169
0.100649 0.458824 0.19646
0.203067 0.4692 0.216693
0.348913 0.468681 0.212711
0.548257 0.453758 0.188983
0.713893 0.447974 0.179431
0.83801 0.453437 0.184024
0.93724 0.465599 0.19617
0 0.56939 0.117617
0.0184176 0.58732 0.161822
0.0946212 0.603479 0.194354
0.197436 0.613901 0.210697
0.315618 0.620905 0.218112
0.469062 0.61857 0.213748
0.651743 0.608194 0.199603
0.804608 0.605173 0.19411
0.924041 0.610239 0.197925
0 0.709987 0.130922
0.0200809 0.729274 0.169635
0.0968185 0.746319 0.19826
0.199832 0.756542 0.21268
0.317082 0.7626 0.21912
0.435325 0.767468 0.224292
0.58378 0.763043 0.21944
0.736751 0.755962 0.211521
0.869978 0.75259 0.207401
0 0.844495 0.158282
0.0386358 0.86302 0.191852
0.113725 0.878355 0.216007
0.21445 0.885969 0.226856
0.32842 0.888716 0.229984
0.441581 0.890089 0.231678
0.551598 0.890745 0.232792
0.676722 0.88574 0.228794
0.803571 0.878782 0.222873
0.00202945 0.966339 0.191531
0.0632639 0.981689 0.218692
0.134539 0.993179 0.237217
0.231357 0.996628 0.24332
0.341222 0.99527 0.242313
0.450385 0.99263 0.240009
0.557717 0.989075 0.237186
0.735225 0.965011 0.218326
0.921904 0.937591 0.195972
0 0 0.297902
0.0767834 0 0.297871
0.168322 0 0.294865
0.285222 0 0.285222
0.402014 0 0.284077
0.527077 0 0.275105
0.663081 0 0.256535
0.774609 0 0.249836
0.866728 0 0.252201
0 0.0767376 0.29781
0.0773632 0.0773632 0.298436
0.157885 0.0789654 0.30341
0.226429 0.0823072 0.340673
0.39675 0.0650339 0.300923
0.551812 0.0527962 0.277012
0.687358 0.0469978 0.268223
0.798337 0.0496071 0.270695
0.894026 0.0584115 0.2795
0 0.171054 0.285039
0.00746166 0.194827 0.272419
0.0471351 0.211643 0.308171
0.210437 0.194308 0.340047
0.431479 0.169451 0.298787
0.578286 0.165393 0.291951
0.712352 0.16611 0.292653
0.827298 0.173114 0.299657
0.926207 0.185138 0.311681
0 0.313634 0.167391
0 0.324666 0.217288
0.0690318 0.333822 0.267964
0.30219 0.30219 0.30219
0.444892 0.302007 0.302007
0.588434 0.302113 0.302113
0.724117 0.304417 0.304417
0.83946 0.311833 0.311833
0.937881 0.323354 0.323354
0 0.442359 0.160815
0.00621042 0.45655 0.2168
0.0926223 0.468284 0.270863
0.202823 0.473411 0.319142
0.349905 0.468971 0.347921
0.580774 0.446677 0.305806
0.723781 0.446967 0.304082
0.839445 0.454688 0.311803
0.938506 0.466865 0.32398
0 0.579705 0.1832
0.0156405 0.594385 0.240742
0.0969253 0.607141 0.294286
0.201343 0.614633 0.33608
0.316533 0.620584 0.362951
0.468696 0.618616 0.357885
0.676646 0.602457 0.324895
0.828367 0.599908 0.315267
0.935866 0.607889 0.321584
0 0.71632 0.214115
0.0229343 0.732982 0.268498
0.101442 0.747585 0.315068
0.203326 0.756146 0.347051
0.317067 0.761761 0.365225
0.432547 0.766781 0.372869
0.58233 0.762005 0.362493
0.752941 0.750408 0.341268
0.892012 0.745418 0.330083
0 0.847944 0.256031
0.042771 0.864317 0.303227
0.117784 0.877806 0.341222
0.216327 0.884276 0.364508
0.326848 0.886625 0.37557
0.438666 0.887678 0.378515
0.54374 0.889174 0.380194
0.673457 0.882872 0.370016
0.813428 0.87248 0.354238
0.0049897 0.967147 0.298955
0.0664836 0.980697 0.337194
0.136904 0.990768 0.366476
0.231281 0.993439 0.381979
0.338094 0.991821 0.386938
0.446128 0.988907 0.385519
0.578271 0.978424 0.37348
0.77731 0.949264 0.338354
0.931212 0.931212 0.316686
0 0 0.436347
0.0722667 0 0.43624
0.163836 0 0.433265
0.280842 0 0.423728
0.375265 0 0.446677
0.484977 0 0.45127
0.630259 0 0.420447
0.751919 0 0.404273
0.853819 0 0.399619
0 0.0724193 0.436377
0.0732738 0.0732738 0.437232
0.124193 0.082948 0.453758
0.176135 0.0900435 0.508461
0.329717 0.0754864 0.4981
0.506233 0.059617 0.454246
0.661524 0.0505379 0.427329
0.787655 0.0505379 0.418814
0.891234 0.0581674 0.42298
0 0.178241 0.409354
0 0.210681 0.405005
0.00291447 0.221653 0.452644
0.132143 0.213291 0.503471
0.332372 0.190951 0.506172
0.542504 0.172625 0.460655
0.703685 0.167803 0.441184
0.826871 0.173205 0.442817
0.926314 0.185229 0.454673
0 0.330388 0.291966
0 0.341009 0.347494
0.0159152 0.349828 0.402716
0.131029 0.351949 0.454459
0.322301 0.334157 0.488029
0.58024 0.304158 0.450324
0.724163 0.304463 0.447349
0.839323 0.311696 0.454582
0.937835 0.323308 0.466194
0 0.461006 0.26302
0 0.475242 0.318334
0.0453346 0.486763 0.371176
0.1579 0.491264 0.417456
0.445075 0.445075 0.445075
0.588281 0.444831 0.444831
0.723873 0.447059 0.447059
0.839536 0.454795 0.454795
0.938552 0.466911 0.466911
0 0.59646 0.261555
0 0.610208 0.316381
0.0719005 0.62153 0.368948
0.184176 0.626307 0.415335
0.308843 0.627726 0.458915
0.467765 0.619974 0.490227
0.714687 0.592554 0.451774
0.838239 0.596933 0.453483
0.935378 0.607172 0.463722
0 0.729534 0.285344
0.00849927 0.744259 0.34316
0.0928664 0.7561 0.398245
0.200626 0.76109 0.445975
0.318563 0.762722 0.487633
0.433402 0.764874 0.521126
0.579919 0.759594 0.519875
0.779492 0.740963 0.477043
0.916442 0.7364 0.462058
0 0.856809 0.335302
0.0372015 0.870665 0.39144
0.116014 0.881239 0.442496
0.217319 0.884611 0.482444
0.328527 0.884291 0.512078
0.437629 0.883894 0.531716
0.537911 0.88539 0.541695
0.668879 0.878691 0.526268
0.82919 0.863264 0.495323
0.000274662 0.971603 0.390646
0.0643778 0.982727 0.439429
0.136919 0.990311 0.481392
0.232227 0.990707 0.511009
0.338247 0.987396 0.52987
0.443595 0.983581 0.539971
0.609781 0.963958 0.514214
0.811841 0.934707 0.467536
0.92697 0.92697 0.455314
0 0 0.57528
0.0677195 0 0.575128
0.159335 0 0.572213
0.26949 0 0.568948
0.334524 0 0.622507
0.43537 0 0.641215
0.585885 0 0.602426
0.714443 0 0.57615
0.824277 0 0.562646
0 0.0681315 0.57554
0.0615396 0.071458 0.57731
0.0708476 0.0925154 0.60856
0.118593 0.10071 0.671122
0.264469 0.0866102 0.685863
0.443122 0.0697795 0.652476
0.611276 0.0588693 0.613367
0.751141 0.0570535 0.590158
0.867536 0.0626841 0.582849
0 0.192569 0.531472
0 0.227405 0.542763
0 0.230823 0.598016
0.0932479 0.222599 0.649165
0.248829 0.21062 0.688319
0.455131 0.191318 0.669657
0.648539 0.179492 0.628626
0.797925 0.179644 0.607813
0.915328 0.187808 0.605798
0 0.345144 0.428931
0 0.355566 0.487343
0 0.363622 0.545846
0.088014 0.364309 0.600763
0.230228 0.359274 0.654429
0.448325 0.336095 0.666651
0.678935 0.314641 0.622538
0.828962 0.313802 0.604913
0.937301 0.323384 0.609918
0 0.478889 0.389197
0 0.492897 0.447242
0 0.503975 0.50312
0.104891 0.507683 0.55288
0.232273 0.506935 0.600656
0.433967 0.486259 0.632441
0.712993 0.44979 0.596353
0.839597 0.454841 0.598291
0.938521 0.46688 0.610315
0 0.615076 0.36759
0 0.628916 0.422477
0.0216526 0.640269 0.475074
0.134401 0.644968 0.521279
0.259968 0.646128 0.564416
0.588525 0.588525 0.588525
0.723476 0.590097 0.590097
0.837736 0.596429 0.596429
0.934554 0.606348 0.606348
0 0.747433 0.370977
0 0.761746 0.426047
0.0574197 0.772885 0.478019
0.169223 0.776684 0.522744
0.29305 0.776287 0.563409
0.416175 0.774838 0.603342
0.573571 0.762676 0.632258
0.822629 0.727993 0.596963
0.92604 0.731212 0.597848
0 0.871763 0.407492
0.0125277 0.884337 0.462058
0.0956283 0.893065 0.513527
0.202121 0.893889 0.557427
0.319265 0.890211 0.596994
0.434119 0.885664 0.635019
0.537514 0.88304 0.671153
0.66601 0.874388 0.676951
0.858167 0.850919 0.626612
0 0.982071 0.461295
0.049424 0.991333 0.512428
0.125917 0.996536 0.560678
0.225345 0.994141 0.600366
0.335073 0.987701 0.63389
0.455253 0.977539 0.658228
0.648737 0.948974 0.636851
0.832029 0.924285 0.597116
0.922621 0.922621 0.59443
0 0 0.704829
0.0639048 0 0.704677
0.155596 0 0.701839
0.239353 0 0.718776
0.280354 0 0.795621
0.385183 0 0.819928
0.537194 0 0.784222
0.670054 0 0.752255
0.785626 0 0.730205
0 0.0646372 0.705425
0.0261845 0.0775464 0.710307
0.00241093 0.107515 0.75584
0.069688 0.111009 0.814252
0.219776 0.095552 0.837232
0.381704 0.0813611 0.834363
0.552041 0.0698405 0.802426
0.700526 0.0670176 0.77142
0.82678 0.0714885 0.752422
0 0.213199 0.645457
0 0.241352 0.675929
0 0.240711 0.734188
0.055314 0.232822 0.785687
0.209705 0.221546 0.828489
0.37702 0.210132 0.851621
0.571237 0.196857 0.826398
0.738857 0.193027 0.793057
0.87425 0.19765 0.773526
0 0.359579 0.560616
0 0.369604 0.621454
0 0.376898 0.682216
0.0484779 0.376577 0.738613
0.193515 0.370825 0.792309
0.350103 0.362325 0.840162
0.568582 0.340902 0.829282
0.761685 0.329397 0.790143
0.903868 0.331716 0.769207
0 0.496132 0.515999
0 0.509773 0.575875
0 0.520165 0.633829
0.0568856 0.522728 0.68603
0.188266 0.520638 0.736782
0.32697 0.51667 0.790051
0.548074 0.492088 0.807294
0.783886 0.468742 0.768627
0.927092 0.470268 0.752667
0 0.633707 0.482841
0 0.647471 0.539956
0 0.65861 0.595102
0.0813153 0.662913 0.644144
0.207645 0.663447 0.69044
0.335195 0.66305 0.737789
0.539391 0.640757 0.769314
0.824338 0.599954 0.735897
0.934325 0.606119 0.739498
0 0.767056 0.470054
0 0.781247 0.525322
0.00645457 0.792203 0.577432
0.118044 0.795727 0.622339
0.241657 0.794949 0.663233
0.364675 0.792996 0.703426
0.721889 0.721889 0.721889
0.832044 0.724117 0.724117
0.924407 0.72958 0.72958
0 0.890227 0.488701
0 0.902373 0.541024
0.0539864 0.910475 0.589792
0.162142 0.910521 0.630518
0.281895 0.905837 0.66656
0.400854 0.899825 0.70132
0.510628 0.894789 0.737163
0.656916 0.878202 0.763836
0.906722 0.835492 0.729213
0 0.997406 0.528008
0.0169375 1 0.57554
0.0961776 1 0.621454
0.199222 1 0.659693
0.313603 0.997711 0.693812
0.468208 0.975647 0.730114
0.682963 0.937514 0.737362
0.832822 0.919722 0.724895
0.918959 0.918959 0.724132
0 0 0.810788
0.0619364 0 0.810666
0.152453 0 0.808576
0.188815 0 0.856001
0.219547 0 0.943328
0.340322 0 0.963256
0.489601 0 0.94052
0.624384 0 0.910719
0.743816 0 0.884276
0 0.0633097 0.811734
0 0.092958 0.822202
0 0.12668 0.878798
0.031281 0.121447 0.927474
0.182742 0.105806 0.955428
0.333852 0.0935378 0.972854
0.495109 0.083299 0.962707
0.645563 0.0800488 0.937041
0.778134 0.0837415 0.91249
0 0.237919 0.740261
0 0.253147 0.788144
0 0.252537 0.846922
0.0194247 0.245075 0.898802
0.173648 0.234302 0.94345
0.331914 0.224796 0.979004
0.500282 0.216007 0.988479
0.669505 0.210803 0.965423
0.816327 0.212802 0.938018
0 0.375051 0.671107
0 0.38468 0.733761
0 0.391379 0.795956
0.0119783 0.390372 0.853056
0.158694 0.384222 0.906569
0.313512 0.376013 0.955734
0.477134 0.366278 0.988251
0.66833 0.353368 0.969848
0.834516 0.349889 0.93727
0 0.514244 0.623056
0 0.527321 0.684596
0 0.536843 0.74432
0.0142519 0.538277 0.798276
0.149218 0.53518 0.850721
0.291325 0.530266 0.904494
0.436316 0.524697 0.957687
0.650797 0.503807 0.956542
0.847562 0.491279 0.920577
0 0.652995 0.584161
0 0.666575 0.643
0 0.677378 0.699855
0.0327306 0.681147 0.75082
0.160922 0.680766 0.799435
0.291524 0.678981 0.849363
0.418463 0.677089 0.903105
0.627909 0.652796 0.924529
0.86714 0.624063 0.888182
0 0.787747 0.561151
0 0.801755 0.617685
0 0.812314 0.671595
0.0658122 0.815305 0.718578
0.189487 0.813825 0.761761
0.31284 0.810956 0.804456
0.427832 0.808591 0.849271
0.618662 0.783398 0.879561
0.908568 0.733761 0.843641
0 0.910674 0.566064
0 0.922789 0.617334
0.00302129 0.930449 0.666148
0.110658 0.930022 0.707027
0.229908 0.924895 0.743389
0.348363 0.918395 0.778698
0.464454 0.910796 0.815854
0.829831 0.829831 0.829831
0.917983 0.831098 0.831098
0 1 0.589868
0 1 0.634089
0.0514382 1 0.677867
0.155169 1 0.714046
0.274388 1 0.747707
0.480201 0.973495 0.806226
0.709621 0.928603 0.833829
0.831098 0.917998 0.831098
0.917098 0.917098 0.830213
0 0 0.8972
0.0615244 0 0.897139
0.128679 0 0.905699
0.120073 0.00444038 0.979843
0.163882 0.00976577 1
0.304921 0 1
0.447166 0 1
0.580713 0 1
0.702007 0 1
0 0.0707408 0.896788
0 0.116197 0.916762
0 0.145815 0.978363
0 0.133623 1
0.146746 0.118181 1
0.299519 0.105531 1
0.447074 0.0978256 1
0.592599 0.0951095 1
0.727352 0.0982834 1
0 0.261662 0.822461
0 0.266423 0.881071
0 0.266026 0.940261
0 0.259022 0.992538
0.139345 0.248722 1
0.297856 0.239216 1
0.449439 0.233555 1
0.604242 0.230228 1
0.752544 0.230976 1
0 0.391196 0.763867
0 0.400778 0.827512
0 0.407004 0.890623
0 0.405539 0.947982
0.125277 0.399161 1
0.279835 0.390845 1
0.430335 0.383703 1
0.585931 0.377798 1
0.752605 0.372885 1
0 0.532753 0.713558
0 0.545449 0.776043
0 0.554055 0.837049
0 0.55462 0.89221
0.113298 0.550774 0.945541
0.257588 0.545281 0.999359
0.401404 0.539986 1
0.546746 0.535058 1
0.737301 0.521675 1
0 0.672618 0.67071
0 0.68629 0.730205
0 0.69662 0.788678
0 0.699657 0.841352
0.119005 0.698283 0.891707
0.252552 0.695232 0.94313
0.382681 0.691966 0.997482
0.501625 0.690455 1
0.709941 0.666346 1
0 0.808347 0.643
0 0.822553 0.699413
0 0.832624 0.754635
0.0167849 0.834974 0.802884
0.141146 0.83267 0.847517
0.265721 0.828672 0.891966
0.382971 0.824826 0.938903
0.482658 0.823835 0.992111
0.680644 0.7953 1
0 0.931426 0.638315
0 0.943816 0.688334
0 0.950973 0.738079
0.0582895 0.94992 0.780407
0.177325 0.944091 0.818555
0.295766 0.936828 0.855894
0.450843 0.916548 0.898421
0.717479 0.863172 0.924636
0.917983 0.831403 0.918273
0 1 0.649638
0 1 0.691524
7.62951e-05 1 0.734325
0.103304 1 0.770733
0.250706 1 0.820768
0.507836 0.965026 0.897566
0.727275 0.923033 0.922667
0.830839 0.917739 0.917739
0.916716 0.916716 0.916716
